dist/svgs/unicons/line/brightness.svg

<svg xmlns="http://www.w3.org/2000/svg" viewBox="0 0 24 24"><path d="M5 12a1 1 0 00-1-1H3a1 1 0 000 2h1a1 1 0 001-1zm.64 5l-.71.71a1 1 0 000 1.41 1 1 0 001.41 0l.71-.71A1 1 0 005.64 17zM12 5a1 1 0 001-1V3a1 1 0 00-2 0v1a1 1 0 001 1zm5.66 2.34a1 1 0 00.7-.29l.71-.71a1 1 0 10-1.41-1.41l-.66.71a1 1 0 000 1.41 1 1 0 00.66.29zm-12-.29a1 1 0 00.7.29 1 1 0 00.71-.29 1 1 0 000-1.41l-.71-.71a1 1 0 00-1.43 1.41zM21 11h-1a1 1 0 000 2h1a1 1 0 000-2zm-2.64 6A1 1 0 0017 18.36l.71.71a1 1 0 001.41 0 1 1 0 000-1.41zM12 6.5a5.5 5.5 0 105.5 5.5A5.51 5.51 0 0012 6.5zm0 9a3.5 3.5 0 113.5-3.5 3.5 3.5 0 01-3.5 3.5zm0 3.5a1 1 0 00-1 1v1a1 1 0 002 0v-1a1 1 0 00-1-1z"/></svg>

<svg xmlns="http://www.w3.org/2000/svg" viewBox="0 0 24 24"><path d="M5,12a1,1,0,0,0-1-1H3a1,1,0,0,0,0,2H4A1,1,0,0,0,5,12ZM5.64,17l-.71.71a1,1,0,0,0,0,1.41,1,1,0,0,0,1.41,0l.71-.71A1,1,0,0,0,5.64,17ZM12,5a1,1,0,0,0,1-1V3a1,1,0,0,0-2,0V4A1,1,0,0,0,12,5Zm5.66,2.34a1,1,0,0,0,.7-.29l.71-.71a1,1,0,1,0-1.41-1.41L17,5.64a1,1,0,0,0,0,1.41A1,1,0,0,0,17.66,7.34Zm-12-.29a1,1,0,0,0,.7.29,1,1,0,0,0,.71-.29,1,1,0,0,0,0-1.41l-.71-.71A1,1,0,0,0,4.93,6.34ZM21,11H20a1,1,0,0,0,0,2h1a1,1,0,0,0,0-2ZM18.36,17A1,1,0,0,0,17,18.36l.71.71a1,1,0,0,0,1.41,0,1,1,0,0,0,0-1.41ZM12,6.5A5.5,5.5,0,1,0,17.5,12,5.51,5.51,0,0,0,12,6.5Zm0,9A3.5,3.5,0,1,1,15.5,12,3.5,3.5,0,0,1,12,15.5ZM12,19a1,1,0,0,0-1,1v1a1,1,0,0,0,2,0V20A1,1,0,0,0,12,19Z"/></svg>
